source/icons/icon-cat-pro.svg

<svg width="134" height="56" viewBox="0 0 134 56" fill="none" xmlns="http://www.w3.org/2000/svg">
<path d="M123.118 5.75685C124.273 3.91994 125.807 2.35146 127.618 1.15685C128.618 0.456854 129.218 0.456854 129.818 1.75685C130.618 3.65685 131.318 5.65685 130.718 7.75685C130.609 8.11302 130.588 8.49045 130.658 8.85639C130.728 9.22234 130.886 9.56575 131.118 9.85685C131.718 10.6569 132.218 11.4569 132.718 12.1569C133.399 13.0206 133.84 14.0482 133.998 15.1364C134.156 16.2246 134.025 17.3352 133.618 18.3569C133.251 19.3487 133.182 20.4261 133.418 21.4569C133.618 22.4469 133.618 23.4668 133.418 24.4569C133.337 25.1983 133.037 25.8987 132.556 26.4688C132.075 27.0388 131.435 27.4524 130.718 27.6569C129.439 27.9002 128.298 28.6137 127.518 29.6569C127.424 29.8105 127.291 29.9372 127.134 30.0247C126.976 30.1123 126.799 30.1578 126.618 30.1569C125.418 30.3569 122.418 27.6569 122.418 26.4569V25.8569C122.518 22.2569 122.318 21.9569 119.018 20.4569C118.328 20.2133 117.709 19.8007 117.218 19.2569C116.618 18.4569 115.818 18.5569 114.918 18.8569C114.018 19.1569 113.518 19.7569 113.618 20.7569C113.92 23.1777 114.02 25.6194 113.918 28.0569C113.925 28.335 113.993 28.6083 114.118 28.8569C117.218 33.3569 118.418 38.6569 119.918 43.7569C121.118 47.6569 123.318 49.7569 127.318 50.0569C127.958 50.1079 128.594 50.2082 129.218 50.3569C130.04 50.4889 130.803 50.8644 131.41 51.4349C132.016 52.0054 132.437 52.7445 132.618 53.5569C133.318 55.6569 132.918 56.1569 130.818 56.1569H124.318C123.477 56.1994 122.652 55.9124 122.018 55.3569C121.006 54.5027 119.856 53.8265 118.618 53.3569C117.249 52.8516 116.065 51.9455 115.218 50.7569C114.047 49.1203 112.706 47.612 111.218 46.2569C108.418 43.3569 105.418 40.5569 102.818 37.5569C100.839 35.5127 99.6973 32.8012 99.6182 29.9569C99.6182 29.0569 99.4182 28.6569 98.4182 29.0569C98.1188 29.2468 97.7728 29.3506 97.4182 29.3569C94.6182 29.3569 93.2182 31.0569 92.2182 33.5569C91.3182 35.6569 90.1182 37.6569 89.0182 39.7569C88.3945 41.0714 88.0538 42.5023 88.0182 43.9569C88.0182 46.3569 88.6182 47.1569 90.8182 47.9569C92.2182 48.4569 93.5182 48.9569 94.2182 50.3569C95.0182 51.9569 94.8182 52.3569 93.1182 52.4569H86.3182C85.9262 52.4957 85.5319 52.4104 85.191 52.213C84.8501 52.0156 84.5798 51.7162 84.4182 51.3569L82.6182 48.3569C82.0876 47.5741 81.7479 46.6779 81.6264 45.7401C81.5048 44.8023 81.6048 43.849 81.9182 42.9569C82.351 41.2204 82.3852 39.4084 82.0182 37.6569C81.7662 36.437 81.7879 35.1764 82.0819 33.9659C82.3758 32.7554 82.9347 31.6252 83.7182 30.6569C84.3182 29.9569 84.3182 29.6569 83.3182 29.4569C79.2291 28.5882 75.2649 27.2108 71.5182 25.3569C71.4917 25.3569 71.4663 25.3463 71.4475 25.3276C71.4288 25.3088 71.4182 25.2834 71.4182 25.2569C68.2182 24.0569 67.6182 24.2569 66.7182 27.5569C65.9182 30.3569 65.1182 33.1569 64.5182 36.0569C63.8182 39.2569 64.6182 42.2569 65.6182 45.2569C66.0182 46.4569 67.2182 46.3569 68.1182 46.6569C70.1182 47.2569 71.8182 48.0569 72.6182 50.1569C73.3182 51.7569 73.2182 51.9569 71.5182 51.9569C69.8182 51.9569 68.1182 51.8569 66.3182 51.9569C64.7993 51.9844 63.3169 51.4902 62.1182 50.5569C57.3182 47.3569 55.9182 42.4569 55.5182 37.1569C55.3182 33.8569 53.5182 31.2569 51.4182 28.7569C51.0182 28.2569 50.6182 28.0569 50.0182 28.4569C47.8717 29.6404 45.6307 30.6439 43.3182 31.4569C38.4925 33.1608 34.2579 36.2153 31.1182 40.2569C29.9459 41.7318 29.1866 43.4919 28.9182 45.3569C28.6182 47.1569 29.1182 47.9569 30.9182 48.4569C32.7182 48.9569 33.6182 49.9569 33.8182 51.8569C33.9182 52.6569 33.6182 53.0569 32.8182 53.0569H24.7182C24.4531 53.0381 24.1965 52.9555 23.9702 52.8162C23.7438 52.6769 23.5545 52.485 23.4182 52.2569C22.1621 50.7016 21.4899 48.7558 21.5182 46.7569C21.4658 43.3018 21.7673 39.8505 22.4182 36.4569C22.5517 35.4405 22.9311 34.4721 23.5236 33.6357C24.1161 32.7992 24.9038 32.12 25.8182 31.6569C31.7182 28.8569 34.8182 23.5569 37.6182 18.0569C38.2182 16.9569 37.7182 16.7569 36.7182 16.8569C33.9196 17.2454 31.2679 18.3474 29.0182 20.0569C26.0724 22.2057 23.2975 24.5795 20.7182 27.1569C17.9679 29.9505 14.3209 31.6855 10.4182 32.0569C3.11823 32.4569 -0.28177 28.3569 0.0182299 21.7569C0.0852924 19.5065 0.933877 17.3496 2.41823 15.6569C2.93425 14.9879 3.63796 14.4878 4.4395 14.2207C5.24103 13.9535 6.10401 13.9313 6.91823 14.1569C8.41823 14.5569 8.81823 15.3569 8.21823 16.8569C7.91823 17.4569 7.51823 17.9569 7.21823 18.5569C6.78683 19.1698 6.44975 19.844 6.21823 20.5569C5.11823 23.5569 6.61823 25.6569 9.71823 25.9569C13.0182 26.2569 15.7182 24.8569 18.2182 22.8569C21.2302 20.4451 23.9189 17.6555 26.2182 14.5569C27.9375 12.2943 30.1023 10.4081 32.5791 9.01498C35.0558 7.62182 37.7918 6.75118 40.6182 6.45685C42.9182 6.15685 44.9182 5.15685 47.1182 4.55685C51.2327 3.30246 55.5172 2.69521 59.8182 2.75685C61.8103 2.83982 63.7948 2.46345 65.6182 1.65685C70.5182 -0.343146 75.6182 -0.343146 80.7182 0.656854C84.7182 1.45685 88.7182 2.45685 92.6182 3.45685C94.9392 3.88933 97.3257 3.82114 99.6182 3.25685C104.007 2.14439 108.496 1.47438 113.018 1.25685C115.981 1.11272 118.933 1.69639 121.618 2.95685C123.618 3.85685 123.618 3.85685 123.118 5.75685Z" fill="black"/>
</svg>

<svg viewBox="0 0 134 56" fill="none" xmlns="http://www.w3.org/2000/svg"><path d="M123.12 5.76a15.2 15.2 0 0 1 4.5-4.6c1-.7 1.6-.7 2.2.6.8 1.9 1.5 3.9.9 6a2.29 2.29 0 0 0 .4 2.1c.6.8 1.1 1.6 1.6 2.3a6.27 6.27 0 0 1 .9 6.2 5.38 5.38 0 0 0-.2 3.1c.2.99.2 2 0 3a3.75 3.75 0 0 1-2.7 3.2 5.21 5.21 0 0 0-3.2 2 1.05 1.05 0 0 1-.9.5c-1.2.2-4.2-2.5-4.2-3.7v-.6c.1-3.6-.1-3.9-3.4-5.4a4.4 4.4 0 0 1-1.8-1.2c-.6-.8-1.4-.7-2.3-.4-.9.3-1.4.9-1.3 1.9.3 2.42.4 4.86.3 7.3 0 .28.07.55.2.8 3.1 4.5 4.3 9.8 5.8 14.9 1.2 3.9 3.4 6 7.4 6.3.64.05 1.27.15 1.9.3a4.16 4.16 0 0 1 3.4 3.2c.7 2.1.3 2.6-1.8 2.6h-6.5a3.24 3.24 0 0 1-2.3-.8 11.71 11.71 0 0 0-3.4-2 7.26 7.26 0 0 1-3.4-2.6 28.58 28.58 0 0 0-4-4.5c-2.8-2.9-5.8-5.7-8.4-8.7a11.38 11.38 0 0 1-3.2-7.6c0-.9-.2-1.3-1.2-.9-.3.19-.65.3-1 .3-2.8 0-4.2 1.7-5.2 4.2-.9 2.1-2.1 4.1-3.2 6.2a10.4 10.4 0 0 0-1 4.2c0 2.4.6 3.2 2.8 4 1.4.5 2.7 1 3.4 2.4.8 1.6.6 2-1.1 2.1h-6.8a1.88 1.88 0 0 1-1.9-1.1l-1.8-3a6.05 6.05 0 0 1-.7-5.4c.43-1.74.47-3.55.1-5.3a8.42 8.42 0 0 1 1.7-7c.6-.7.6-1-.4-1.2a50.07 50.07 0 0 1-11.87-4.13.1.1 0 0 1-.03-.07c-3.2-1.2-3.8-1-4.7 2.3-.8 2.8-1.6 5.6-2.2 8.5-.7 3.2.1 6.2 1.1 9.2.4 1.2 1.6 1.1 2.5 1.4 2 .6 3.7 1.4 4.5 3.5.7 1.6.6 1.8-1.1 1.8-1.7 0-3.4-.1-5.2 0a6.7 6.7 0 0 1-4.2-1.4c-4.8-3.2-6.2-8.1-6.6-13.4-.2-3.3-2-5.9-4.1-8.4-.4-.5-.8-.7-1.4-.3a44.32 44.32 0 0 1-6.7 3 26.71 26.71 0 0 0-12.2 8.8 10.63 10.63 0 0 0-2.2 5.1c-.3 1.8.2 2.6 2 3.1s2.7 1.5 2.9 3.4c.1.8-.2 1.2-1 1.2h-8.1a1.65 1.65 0 0 1-1.3-.8 8.56 8.56 0 0 1-1.9-5.5c-.05-3.46.25-6.91.9-10.3a6.3 6.3 0 0 1 3.4-4.8c5.9-2.8 9-8.1 11.8-13.6.6-1.1.1-1.3-.9-1.2-2.8.39-5.45 1.49-7.7 3.2a70.62 70.62 0 0 0-8.3 7.1 16.67 16.67 0 0 1-10.3 4.9c-7.3.4-10.7-3.7-10.4-10.3a9.67 9.67 0 0 1 2.4-6.1 4.25 4.25 0 0 1 4.5-1.5c1.5.4 1.9 1.2 1.3 2.7-.3.6-.7 1.1-1 1.7a7.5 7.5 0 0 0-1 2c-1.1 3 .4 5.1 3.5 5.4 3.3.3 6-1.1 8.5-3.1 3.01-2.41 5.7-5.2 8-8.3a20.79 20.79 0 0 1 14.4-8.1c2.3-.3 4.3-1.3 6.5-1.9a41.51 41.51 0 0 1 12.7-1.8 13 13 0 0 0 5.8-1.1c4.9-2 10-2 15.1-1 4 .8 8 1.8 11.9 2.8 2.32.43 4.7.36 7-.2a67.8 67.8 0 0 1 13.4-2c2.96-.15 5.91.44 8.6 1.7 2 .9 2 .9 1.5 2.8Z" fill="#000"/></svg>
